X:71
T:The Monaghan Jig
R:jig
M:6/8
L:1/8
K:Edor
BGE F2E | BGE FGA | BGE F2E | AFD FGA | BGE F2E | BGE FGA |
dcB ABG | FDF AFD :: EGB efg | fed edB | EGB dBG | FDF AGF |
EGB efg | fed edB | dcB ABG | FDF AFD :: g2e eBe | geg bge |
g2e efg | fdf agf | g2e eBe | geg bge | dcB ABG | FDF AGF :: EGB dBG |
BGB AFD | EGB dBG | FDF AGF | EGB GBe | Beg egb | dcB ABG | FDF AGF :|
